X: 1
T:AIR II. Logan Water.
B:Joseph Mitchell: "The Highland Fair" (1731)
Z:Jack Campin <http://www.purr.demon.co.uk/jack/jack.html>
M:C|
L:1/8
K:AMin
GA|c2A2 A3c|GEDE   G2AB|c2A2 A3c|G>Ac>d e3e|f2ed e2dc|d>cB>A G3 B|A>Bc>d e3d|c2A2 A2||
eg|a2A2 A3c|G>ED>E G2eg|a2A2 A3c|G>Ac>d e3e|f2ed e2dc|dcBA   GABG|ABcd   e3d|c2A2 A2|]
